X:1
T: The Fun of the Fair
C:
R:Reel
Q: 232
K:Am
M:4/4
L:1/8
|:A2 cB AE CE|AB cd e2 ag|fe df ed ce|dc BA ^G2 E2|
A2 cB AE CE|AB cd e2 ag|fe df ed cd|ed cB A2 B2|
c2 ed cG EG|cd ef ge dc|B2 dc BG Bd|fe dc BG AB|
c2 ed cG EG|cd ef ge dc|af ge fd ec|dB GB ce a2:|
